images/info.svg

<svg width="24" height="24" viewBox="0 0 24 24" fill="none" xmlns="http://www.w3.org/2000/svg">
<g opacity="0.4">
<rect x="1" y="1" width="22" height="22" stroke="#A5A5A5" stroke-width="2"/>
<path d="M11.008 9.468H13.192V17H11.008V9.468ZM12.1 8.418C11.6987 8.418 11.372 8.30133 11.12 8.068C10.868 7.83467 10.742 7.54533 10.742 7.2C10.742 6.85467 10.868 6.56533 11.12 6.332C11.372 6.09867 11.6987 5.982 12.1 5.982C12.5013 5.982 12.828 6.094 13.08 6.318C13.332 6.542 13.458 6.822 13.458 7.158C13.458 7.522 13.332 7.82533 13.08 8.068C12.828 8.30133 12.5013 8.418 12.1 8.418Z" fill="#A5A5A5"/>
<path d="M0 0V-1H-1V0H0ZM24 0H25V-1H24V0ZM24 24V25H25V24H24ZM0 24H-1V25H0V24ZM0 1H24V-1H0V1ZM23 0V24H25V0H23ZM24 23H0V25H24V23ZM1 24V0H-1V24H1Z" fill="#A5A5A5"/>
</g>
</svg>

<svg width="24" height="24" fill="none" xmlns="http://www.w3.org/2000/svg"><g opacity=".4"><path stroke="#A5A5A5" stroke-width="2" d="M1 1h22v22H1z"/><path d="M11.008 9.468h2.184V17h-2.184V9.468zm1.092-1.05c-.401 0-.728-.117-.98-.35a1.135 1.135 0 01-.378-.868c0-.345.126-.635.378-.868.252-.233.579-.35.98-.35s.728.112.98.336c.252.224.378.504.378.84 0 .364-.126.667-.378.91-.252.233-.579.35-.98.35zM0 0v-1h-1v1h1zm24 0h1v-1h-1v1zm0 24v1h1v-1h-1zM0 24h-1v1h1v-1zM0 1h24v-2H0v2zm23-1v24h2V0h-2zm1 23H0v2h24v-2zM1 24V0h-2v24h2z" fill="#A5A5A5"/></g></svg>
